X:1
T:O lux beata
T:O lux beata
T:André Vierendeels
C:André Vierendeels
%%score [ 1 2 3 4 ]
L:1/8
Q:1/4=120
M:2/2
K:G
V:1 treble nm="Soprano" snm="S"
V:2 treble nm="Alto" snm="A"
V:3 treble-8 nm="Tenor" snm="T"
V:4 bass nm="Bass" snm="B"
V:1
 z4 B4 | G4 E4 | c4 A4 | F6 F2 | !fermata!E4 G4 | A4 B4 | c4 B4 | A6 A2 | !fermata!G4 B4 | B4 A4 | %10
w: O|lux be-|a- ta|Tri- ni-|tas et|prin- ci-|pa- lis|U- ni-|tas, jam|sol re-|
 B4 d4 | c4 B4 | !fermata!A4 B4 | G4 E4 | c4 A4 | F6 F2 | !fermata!E8 |] %17
w: ce- dit|i- gue-|us, in-|fun- de|lu- men|cor- di-|bus.|
V:2
 z4 E4 | D4 C4 | E2 C2 D4 | ^D6 D2 | !fermata!B,4 E4 | E4 G4 | E4 D4 | F6 F2 | !fermata!D4 D4 | %9
w: O|lux be-|a- * ta|Tri- ni-|tas et|prin- ci-|pa- lis|U- ni-|tas, jam|
 E2 ^C2 F4 | E2 F2 G2 =F2 | E4 E4 | !fermata!^C4 E4 | D4 C4 | E2 C2 D4 | ^D6 D2 | !fermata!B,8 |] %17
w: sol _ re-|ce- * dit _|i- gue-|us, in-|fun- de|lu- * men|cor- di-|bus.|
V:3
 z4 G2 F2 | B4 G4 | A2 E2 F4 | F6 A2 | !fermata!^G4 =G4 | c2 A2 B4 | A2 F2 G4 | A6 A2 | %8
w: O _|lux be-|a- * ta|Tri- ni-|tas et|prin- * ci-|pa- * lis|U- ni-|
 !fermata!G4 G4 | G4 A4 | G4 B4 | G4 ^G4 | A4 B4 | B4 G4 | A2 E2 D4 | F6 B2 | !fermata!^G8 |] %17
w: tas, jam|sol re-|ce- dit|i- gue-|* in-|fun- de|lu- * men|cor- di-|tus|
V:4
 z4 E,2 F,2 | G,4 C,2 B,,2 | A,,4 D,2 C,2 | B,,6 B,,2 | !fermata!E,4 C,4 | A,,4 E,4 | A,,4 G,,4 | %7
w: O _|lux be- *|a- ta _|Tri- ni-|tas et|prin- ci-|pa- lis|
 D,6 D,2 | !fermata!G,,4 B,,2 D,2 | E,4 D,4 | E,4 G,4 | C,4 E,4 | !fermata!A,,4 E,2 F,2 | %13
w: U- ni-|tas, jam _|sol re-|ce- dit|i- gue-|us, in- *|
 G,4 C,2 B,,2 | A,,4 D,2 C,2 | B,,6 B,,2 | !fermata!E,,8 |] %17
w: fun- de _|lu- men _|cor- di-|bus.|

